X:1
T:William and Nancy
C:Traditional
M:6/8
L:1/8
Q:3/8=110
K:D
D2F GAB | A2F D2F | G2B AFD | E2D D3 |
D2F GAB | A2F D2F | G2E F2D | D3 D3 :|
f2e dcB | A2F D2F | g2f edc | B2A A3 |
f2e dcB | A2F D2F | g2e f2d | e3 d3 |]
